X: 14996
T: Gentle Light That Wakes Me, The
R: reel
M: 4/4
K: Dmajor
|:A>F A,>A, A2 G>F|F2 E>D F2 E2|D2 d>c B2 BA|A2 D>E F2 E2|
A>F A,>A, A2 G>F|F2 E>D F2 E2|D2 BA A2 D>E|F2 E>D D4:|
d2 c>d e3 c|d2 c>d F4|d2 c>d B2 A>B|A2 D>E F2 E2|
d2 c>d e3 c|d2 c>d F3 E|D2 B>A A2 D>E|F2 E>D D3D|
d2 c>d e3 c|d2 c>d F4|d2 c>d B2 A>B|A2 D>E F2 E2|
A2 A,2 A2 G>F|F2 E>D F2 E2|D2 B>A A2 D>E|F2 E>D D4||

